X: 1
T: Fun Tashlich (WKJ)   [Dm]
S: printed MS of Steve Rauch (Watertown Ktelzmer Jam) 2020-7-11
Z: 2020 John Chambers <jc:trillian.mit.edu>
N: A & B parts shifted down an octave for easier reading; use whatever octave works for you.
M: 2/4
L: 1/16
K: Dm
"A"[|]"A7"z2 A,2 |\
"Dm"D2D2 _AGF2 | "A7"EFGE "Dm"F4 |\
EFG_A =Bcdc | dc=B_A BAGF |\
"Dm"D2D2 _AGF2 | "A7"EFGE "Dm"F4 |
"F"FCCF "Cm"F_EED | "Dm"D4 :|\
"B"|: "C7"zcde |\
"F"f2ff _edcB | AcAc BAGF |\
"C7"GABc AFGE | "F"=Bdc2 "C7"zcde |
"F"f2ff _edcB | AcAc BAGF |\
"C7"GABc AFGE | "F"F4 :|\
"C"|: "C7"zEFG |\
"Fm"_AGAG Ac=BA | "G"G2G2 G2-G2 |
"F"FEEF "Cm"F_EED | "Dm"D2F2 A2d2 |\
"Fm"_A3z _edc=B | c=B_AG AGFE |\
"F"FCCF "Cm"F_EED | "Dm"D4 :|


